X:1023
T:The Teddy Bears' Picnic
C:John W. Bratton (c.1907)
S:Colin Hume's website,  colinhume.com  - chords can also be printed below the stave.
Q:3/8=116
M:6/8
R:Jig
L:1/8
K:Am
%%center For the dance by Hilary Herbert play AA BB AA BB AA: 7 x 32 bars.
P:A
"E7"E | "Am"A2c "E7"BcB | "Am"A2c "E7"B2c | "Am"ABc "E7"B2c | "Am"A3- "G7"A2G |\
"C"c2e "G7"ded | "C"c2e "G7"d2e | "C"cde "G7"d2e | "C"c3- c2g |
| "G7"a2g a2g | deg e2d | "C"d2c d2c | GAc A2G |\
"F"A2c "C"G2G | "F"ABc "C"G2e | "G7"d6 |1 "C"c3 "E7"B2 :|2 "C"c3 "C7"z3 |
P:B
K:F
|: [| "F"A3 A3 | ^G3 A3 | d2A c3- | c2A ^G2A | d2A c2A | dcA ^G2A | "C7"c2c B3- | B6 |
| "C7"C3 B3 | ^F3 G3 | e2e d3- | d2d ^c2d | e3 d3 | c3 B3 | "F"A2c c3- | c3- "C7"c3 |
| "F"A3 A3 | ^G3 A3 | d2A c3- | c2A ^G2A |\
d2A c2A | dcA "F7"G2F | "Bb"f6- | f3- fde |
| "Bb"f2e f2e | "G7/B"fef gfd | "F"c2=B c2d | "Dm"c2F G2A | "Gm"B3 c2d | "C7"A3 G3 | "F"F6- |1 "/"F2c c2B :| "/"F3 "E7"E2 |]

